X:595
%%etbk:tnset id:331,pos:1,rep:3x,ant:
%%etbk:pldat 2014-08-19T18:14,2014-08-05T18:34,2014-08-03T15:05,2014-07-31T17:58,2014-07-27T16:54,2014-07-20T11:46,2014-07-18T10:28,2014-07-16T17:33,2014-07-14T17:26,2014-07-13T14:28
T: Hundred Pipers
Z: Piano Box Version by Martin Fleischmann
H: Created 2014-07-13 /  Last Modified 2014-07-13
R: jig
M: 6/8
L: 1/8
K: Amaj
|:"A"!3!c2!1!E !1!EFE|"D"!2!F2!3!A !1!A2!5!f| "A"!4!e2!3!c !3!cBA| "E"!2!BcB BAB|
"A"!3!c2!1!E EFE| "D"!2!F2!3!A !1!A2!5!f| "A"!4!e2!3!c "E"!2!BcB|1 "A"!1!A3 A2B:|2 "A"A3 c2d||
|:"A"!5!e2!3!e ece| "D"!4!f2!5!a a2!4!f| "A"!3!!5!e2!3!c !3!cBA| "E"!2!BcB Bcd|
"A"!5!e2!3!e ece| "D"!4!f2!5!a a2!4!f| "A"!3!!5!e2!3!c "E"!2!BcB|"A"!1!A3 A2B:||


